public/alergenos/huevos.svg

<?xml version="1.0" encoding="UTF-8" standalone="no"?>
<!-- Created with Inkscape (http://www.inkscape.org/) -->

<svg
   xmlns:dc="http://purl.org/dc/elements/1.1/"
   xmlns:cc="http://creativecommons.org/ns#"
   xmlns:rdf="http://www.w3.org/1999/02/22-rdf-syntax-ns#"
   xmlns:svg="http://www.w3.org/2000/svg"
   xmlns="http://www.w3.org/2000/svg"
   xmlns:sodipodi="http://sodipodi.sourceforge.net/DTD/sodipodi-0.dtd"
   xmlns:inkscape="http://www.inkscape.org/namespaces/inkscape"
   width="262.20471"
   height="372.04724"
   id="svg4209"
   version="1.1"
   inkscape:version="0.48.5 r10040"
   sodipodi:docname="IconoAlergenoHuevo-Egg.svg">
  <defs
     id="defs4211" />
  <sodipodi:namedview
     id="base"
     pagecolor="#ffffff"
     bordercolor="#666666"
     borderopacity="1.0"
     inkscape:pageopacity="0.0"
     inkscape:pageshadow="2"
     inkscape:zoom="0.45585795"
     inkscape:cx="370.24788"
     inkscape:cy="786.42524"
     inkscape:document-units="px"
     inkscape:current-layer="layer1"
     showgrid="false"
     inkscape:window-width="1280"
     inkscape:window-height="924"
     inkscape:window-x="0"
     inkscape:window-y="28"
     inkscape:window-maximized="1" />
  <metadata
     id="metadata4214">
    <rdf:RDF>
      <cc:Work
         rdf:about="">
        <dc:format>image/svg+xml</dc:format>
        <dc:type
           rdf:resource="http://purl.org/dc/dcmitype/StillImage" />
        <dc:title />
      </cc:Work>
    </rdf:RDF>
  </metadata>
  <g
     inkscape:label="Capa 1"
     inkscape:groupmode="layer"
     id="layer1"
     transform="translate(0,-680.31494)">
    <g
       id="g4262"
       transform="matrix(5.5766335,0,0,5.5766335,-1473.1763,-1173.5839)">
      <path
         transform="matrix(1.0403305,0,0,1.0205147,265.23561,331.45019)"
         d="m 39.936842,29.287827 c 0,10.338988 -8.22176,18.720394 -18.363815,18.720394 -10.142055,0 -18.3638157,-8.381406 -18.3638157,-18.720394 0,-10.338989 8.2217607,-18.720395 18.3638157,-18.720395 10.142055,0 18.363815,8.381406 18.363815,18.720395 z"
         sodipodi:ry="18.720394"
         sodipodi:rx="18.363815"
         sodipodi:cy="29.287827"
         sodipodi:cx="21.573027"
         id="path3230-2-8-3"
         style="fill:#f68d2f;fill-opacity:1;stroke:#f68d2f;stroke-width:3;stroke-linecap:round;stroke-linejoin:round;stroke-miterlimit:4;stroke-opacity:1;stroke-dasharray:none;stroke-dashoffset:0"
         sodipodi:type="arc" />
      <text
         sodipodi:linespacing="125%"
         id="text4033-9-3-0"
         y="390.82965"
         x="287.56186"
         style="font-size:15px;font-style:normal;font-weight:normal;text-align:center;line-height:125%;letter-spacing:0px;word-spacing:0px;text-anchor:middle;fill:#000000;fill-opacity:1;stroke:none;font-family:Sans"
         xml:space="preserve"><tspan
           style="font-size:5.5px"
           id="tspan4037-1-5-0"
           y="390.82965"
           x="287.56186"
           sodipodi:role="line">HUEVOS</tspan></text>
      <g
         id="g4248">
        <g
           transform="translate(177.12231,332.70074)"
           id="g4182">
          <path
             sodipodi:nodetypes="cccccccccccccccccccccccccccccccccccc"
             inkscape:connector-curvature="0"
             id="path4366"
             d="m 95.369673,28.150133 0.454141,-2.00579 0.491986,-1.513805 c 0.242445,-0.523261 0.43859,-1.115517 0.870438,-1.765046 l 0.835319,-1.069609 c 0.223887,-0.314033 0.599772,-0.590067 0.943401,-0.874165 l 1.097512,-0.454142 c 0.40513,-0.07027 0.81026,-0.04822 1.21539,0.03978 0.42343,0.115817 0.71262,0.245059 0.97962,0.376519 0.42875,0.20823 0.7611,0.464659 1.09751,0.719057 l 1.02182,1.097508 c 0.43984,0.437847 0.74171,0.961927 1.05966,1.475959 l 0.60552,1.021818 0.52983,1.211043 0.56768,1.589495 0.37845,1.62734 0.11354,0.983972 0,1.021818 -0.15138,0.946128 -0.18923,0.908283 -0.26491,0.832592 -0.60553,1.059663 -0.64336,0.719057 -0.79475,0.681212 -0.94613,0.605522 -1.2473,0.32852 c -0.57776,0.126723 -0.98498,0.04107 -1.36401,0.125621 l -1.589495,-0.15138 -1.475959,-0.719057 -1.135353,-0.794748 c -0.462591,-0.592907 -0.881246,-1.185813 -1.211044,-1.77872 l -0.567676,-1.438114 -0.189226,-1.059663 -0.03864,-1.616047 0.07648,-1.070956 z"
             style="fill:#fefefe;fill-opacity:1;stroke:#fefefe;stroke-width:0.05;stroke-linecap:butt;stroke-linejoin:miter;stroke-miterlimit:4;stroke-opacity:1;stroke-dasharray:none" />
          <path
             sodipodi:nodetypes="cccccccccccccccccccccccccc"
             inkscape:connector-curvature="0"
             id="path4368"
             d="m 98.963649,26.419631 0.324553,-1.048555 0.424415,-0.823865 0.649103,-0.798899 0.67406,-0.436897 0.19974,-0.237175 0.0749,-0.486837 c -0.015,-0.111812 -0.13477,-0.258515 -0.34951,-0.43689 l -0.29959,-0.124828 -0.32455,0 -0.649109,0.449381 -0.374484,0.349518 -0.374484,0.349519 -0.449381,0.574209 -0.299587,0.549243 -0.199725,0.549243 -0.249656,0.649106 -0.174759,0.699037 -0.0749,0.499312 0,0.174759 0.224691,0.22469 0.274621,0.199725 0.436887,0.04992 0.386978,-0.249646 0.08739,-0.312068 z"
             style="fill:#f68d2f;fill-opacity:1;stroke:#f68d2f;stroke-width:0.05;stroke-linecap:butt;stroke-linejoin:miter;stroke-miterlimit:4;stroke-opacity:1;stroke-dasharray:none" />
        </g>
        <g
           transform="matrix(0.0810773,0.99670782,-0.99670782,0.0810773,315.21343,261.74291)"
           id="g3360-4"
           inkscape:transform-center-x="1.3549446"
           inkscape:transform-center-y="-2.512862">
          <path
             sodipodi:nodetypes="cccccccccccccccccccccccccccccccccccc"
             inkscape:connector-curvature="0"
             id="path4366-3"
             d="m 95.369673,28.150133 0.454141,-2.00579 0.491986,-1.513805 c 0.242445,-0.523261 0.43859,-1.115517 0.870438,-1.765046 l 0.835319,-1.069609 c 0.223887,-0.314033 0.599772,-0.590067 0.943401,-0.874165 l 1.097512,-0.454142 c 0.40513,-0.07027 0.81026,-0.04822 1.21539,0.03978 0.42343,0.115817 0.71262,0.245059 0.97962,0.376519 0.42875,0.20823 0.7611,0.464659 1.09751,0.719057 l 1.02182,1.097508 c 0.43984,0.437847 0.74171,0.961927 1.05966,1.475959 l 0.60552,1.021818 0.52983,1.211043 0.56768,1.589495 0.37845,1.62734 0.11354,0.983972 0,1.021818 -0.15138,0.946128 -0.18923,0.908283 -0.26491,0.832592 -0.60553,1.059663 -0.64336,0.719057 -0.79475,0.681212 -0.94613,0.605522 -1.2473,0.32852 c -0.57776,0.126723 -0.98498,0.04107 -1.36401,0.125621 l -1.589495,-0.15138 -1.475959,-0.719057 -1.135353,-0.794748 c -0.462591,-0.592907 -0.881246,-1.185813 -1.211044,-1.77872 l -0.567676,-1.438114 -0.189226,-1.059663 -0.03864,-1.616047 0.07648,-1.070956 z"
             style="fill:#fefefe;fill-opacity:1;stroke:#fefefe;stroke-width:0.05;stroke-linecap:butt;stroke-linejoin:miter;stroke-miterlimit:4;stroke-opacity:1;stroke-dasharray:none" />
          <path
             sodipodi:nodetypes="cccccccccccccccccccccccccc"
             inkscape:connector-curvature="0"
             id="path4368-7"
             d="m 98.963649,26.419631 0.324553,-1.048555 0.424415,-0.823865 0.649103,-0.798899 0.67406,-0.436897 0.19974,-0.237175 0.0749,-0.486837 c -0.015,-0.111812 -0.13477,-0.258515 -0.34951,-0.43689 l -0.29959,-0.124828 -0.32455,0 -0.649109,0.449381 -0.374484,0.349518 -0.374484,0.349519 -0.449381,0.574209 -0.299587,0.549243 -0.199725,0.549243 -0.249656,0.649106 -0.174759,0.699037 -0.0749,0.499312 0,0.174759 0.224691,0.22469 0.274621,0.199725 0.436887,0.04992 0.386978,-0.249646 0.08739,-0.312068 z"
             style="fill:#f68d2f;fill-opacity:1;stroke:#f68d2f;stroke-width:0.05;stroke-linecap:butt;stroke-linejoin:miter;stroke-miterlimit:4;stroke-opacity:1;stroke-dasharray:none" />
        </g>
        <g
           transform="translate(177.12231,332.70074)"
           id="g4178">
          <path
             sodipodi:nodetypes="ccccccccccccccccccc"
             inkscape:connector-curvature="0"
             id="path3388"
             d="m 105.65214,21.837485 c 0.32924,-1.028316 0.79416,-1.975225 1.33746,-2.87511 0.65239,-1.026687 1.30628,-2.044393 2.00066,-2.819105 0.58954,-0.634608 1.22615,-1.209105 2.06497,-1.511027 0.53917,-0.331657 1.07833,-0.388103 1.6175,-0.379836 0.63757,0.127668 1.25409,0.511473 1.80602,0.896081 0.60924,0.55324 0.92412,0.975657 1.15005,1.358537 0.44968,0.81845 0.89659,1.6369 1.13673,2.45535 l 0.53117,2.027272 c 0.12329,0.787838 0.24657,1.811137 0.36986,2.896736 l 0,1.068629 -1.49213,-0.127079 c -0.81199,-0.0051 -1.66377,-0.03007 -2.22912,0.08817 -0.9559,0.02949 -1.70588,0.419362 -2.4997,0.7325 l -1.30752,0.861147 -1.28424,1.137292 -1.00033,-2.409881 c -0.18169,-0.428813 -0.48904,-0.98329 -0.88499,-1.626365 -0.38205,-0.523006 -0.72904,-1.003943 -1.31639,-1.773308 z"
             style="fill:#fefefe;fill-opacity:1;stroke:#fefefe;stroke-width:0.05;stroke-linecap:butt;stroke-linejoin:miter;stroke-miterlimit:4;stroke-opacity:1;stroke-dasharray:none" />
          <path
             sodipodi:nodetypes="cccccccccccccccccccccccccc"
             inkscape:connector-curvature="0"
             id="path4368-1"
             d="m 110.34468,20.001307 0.44711,-1.00244 0.51952,-0.767455 0.73963,-0.715909 0.72129,-0.35351 0.22657,-0.211699 0.13234,-0.474452 c -0.002,-0.112802 -0.10302,-0.272725 -0.29499,-0.475405 l -0.28259,-0.15962 -0.32224,-0.03865 -0.69801,0.368877 -0.41344,0.302431 -0.41345,0.302432 -0.51457,0.516603 -0.36286,0.509656 -0.26372,0.521547 -0.32519,0.614753 -0.25675,0.67325 -0.13384,0.486838 -0.0208,0.173515 0.19633,0.24985 0.24888,0.23101 0.42783,0.101595 0.41395,-0.201782 0.12395,-0.299438 z"
             style="fill:#f68d2f;fill-opacity:1;stroke:#f68d2f;stroke-width:0.05;stroke-linecap:butt;stroke-linejoin:round;stroke-miterlimit:4;stroke-opacity:1;stroke-dasharray:none" />
        </g>
      </g>
    </g>
  </g>
</svg>

<svg xmlns="http://www.w3.org/2000/svg" xmlns:xlink="http://www.w3.org/1999/xlink" width="80" zoomAndPan="magnify" viewBox="0 0 60 67.92" height="80" preserveAspectRatio="xMidYMid meet" version="1.0"><path stroke-linecap="round" transform="matrix(1.325997, 0, 0, 1.304315, 1.394177, -8.073697)" fill-opacity="1" fill="#f68d2f" fill-rule="nonzero" stroke-linejoin="round" d="M 39.937792 29.2864 C 39.937792 39.627675 31.715794 48.007312 21.573071 48.007312 C 11.430347 48.007312 3.208349 39.627675 3.208349 29.2864 C 3.208349 18.948121 11.430347 10.568484 21.573071 10.568484 C 31.715794 10.568484 39.937792 18.948121 39.937792 29.2864 Z M 39.937792 29.2864 " stroke="#f68d2f" stroke-width="3" stroke-opacity="1" stroke-miterlimit="4"/><path stroke-linecap="butt" transform="matrix(1.274592, 0, 0, 1.278095, -110.914299, -6.475376)" fill-opacity="1" fill="#fefefe" fill-rule="nonzero" stroke-linejoin="miter" d="M 95.370784 28.150701 L 95.824361 26.145765 L 96.314714 24.629838 C 96.556826 24.107209 96.752967 23.514286 97.18509 22.866349 L 98.021755 21.796642 C 98.245479 21.481843 98.622438 21.206775 98.965685 20.922539 L 100.06285 20.467149 C 100.467391 20.396854 100.871932 20.418249 101.276473 20.506881 C 101.702468 20.623021 101.99055 20.751386 102.257179 20.882807 C 102.686238 21.090636 103.017227 21.347365 103.354344 21.604095 L 104.377956 22.701309 C 104.816209 23.13836 105.119615 23.660989 105.43528 24.177504 L 106.042092 25.19831 L 106.572286 26.408607 L 107.139257 27.997886 L 107.51928 29.626897 L 107.632675 30.611027 L 107.632675 31.631833 L 107.479439 32.579288 L 107.289427 33.487011 L 107.025863 34.318326 L 106.419051 35.378864 L 105.778527 36.097096 L 104.981703 36.778652 L 104.034709 37.3838 L 102.790438 37.713881 C 102.211209 37.83919 101.803603 37.753613 101.423579 37.83919 L 99.836061 37.686375 L 98.358873 36.968143 L 97.224932 36.173503 C 96.762161 35.58058 96.342296 34.987657 96.014373 34.394734 L 95.444337 32.955214 L 95.25739 31.897732 L 95.217549 30.280946 L 95.294167 29.211239 Z M 95.370784 28.150701 " stroke="#fefefe" stroke-width="0.05" stroke-opacity="1" stroke-miterlimit="4"/><path stroke-linecap="butt" transform="matrix(1.274592, 0, 0, 1.278095, -110.914299, -6.475376)" fill-opacity="1" fill="#f68d2f" fill-rule="nonzero" stroke-linejoin="miter" d="M 98.96262 26.420833 L 99.287479 25.37252 L 99.713473 24.547317 L 100.363191 23.749622 L 101.034362 23.31257 L 101.236632 23.074178 L 101.310185 22.588225 C 101.294862 22.475142 101.175338 22.32844 100.960809 22.151174 L 100.660467 22.025865 L 100.335609 22.025865 L 99.688956 22.475142 L 99.311997 22.823561 L 98.938102 23.175036 L 98.490655 23.749622 L 98.190314 24.2967 L 97.991108 24.846835 L 97.739802 25.494772 L 97.565114 26.194666 L 97.491561 26.692844 L 97.491561 26.870109 L 97.715285 27.09322 L 97.991108 27.294936 L 98.426296 27.343837 L 98.812449 27.09322 L 98.901326 26.781477 Z M 98.96262 26.420833 " stroke="#f68d2f" stroke-width="0.05" stroke-opacity="1" stroke-miterlimit="4"/><path stroke-linecap="butt" transform="matrix(0.10334, 1.273888, -1.270396, 0.103625, 65.095531, -97.166244)" fill-opacity="1" fill="#fefefe" fill-rule="nonzero" stroke-linejoin="miter" d="M 95.370454 28.151592 L 95.825085 26.143812 L 96.316116 24.630966 C 96.558102 24.106406 96.753521 23.513486 97.186417 22.866088 L 98.021637 21.796342 C 98.246479 21.48255 98.621645 21.205585 98.96355 20.92284 L 100.061531 20.46791 C 100.469038 20.396515 100.871887 20.42006 101.278657 20.508496 C 101.701717 20.622855 101.991801 20.750996 102.257018 20.883264 C 102.687606 21.093556 103.019537 21.348094 103.354514 21.60288 L 104.378302 22.700854 C 104.81792 23.139417 105.118845 23.662019 105.435748 24.176695 L 106.042634 25.197708 L 106.572692 26.409261 L 107.139453 27.998929 L 107.519216 29.625657 L 107.632362 30.609582 L 107.632115 31.630405 L 107.48148 32.577499 L 107.290931 33.487522 L 107.027143 34.317792 L 106.419581 35.378383 L 105.778427 36.098011 L 104.981104 36.777261 L 104.036439 37.38303 L 102.789247 37.712053 C 102.211528 37.840323 101.804509 37.754942 101.423674 37.837732 L 99.835274 37.687 L 98.360605 36.967451 L 97.223131 36.173862 C 96.762429 35.579842 96.341577 34.985988 96.012609 34.39346 L 95.445608 32.957514 L 95.255929 31.896643 L 95.218837 30.27934 L 95.293619 29.209233 Z M 95.370454 28.151592 " stroke="#fefefe" stroke-width="0.05" stroke-opacity="1" stroke-miterlimit="4"/><path stroke-linecap="butt" transform="matrix(0.10334, 1.273888, -1.270396, 0.103625, 65.095531, -97.166244)" fill-opacity="1" fill="#f68d2f" fill-rule="nonzero" stroke-linejoin="miter" d="M 98.964023 26.420673 L 99.288597 25.370885 L 99.711287 24.547392 L 100.361948 23.748592 L 101.035323 23.311395 L 101.235427 23.075536 L 101.311987 22.586717 C 101.296562 22.474768 101.176507 22.32971 100.961208 22.14923 L 100.661488 22.026455 L 100.336599 22.024625 L 99.686599 22.476023 L 99.311811 22.82374 L 98.939821 23.174759 L 98.488518 23.746864 L 98.189214 24.29751 L 97.991182 24.84717 L 97.739008 25.49697 L 97.565604 26.196225 L 97.491344 26.694456 L 97.489366 26.869561 L 97.716418 27.094044 L 97.991399 27.294752 L 98.426018 27.342406 L 98.814179 27.094171 L 98.900945 26.781447 Z M 98.964023 26.420673 " stroke="#f68d2f" stroke-width="0.05" stroke-opacity="1" stroke-miterlimit="4"/><path stroke-linecap="butt" transform="matrix(1.274592, 0, 0, 1.278095, -110.914299, -6.475376)" fill-opacity="1" fill="#fefefe" fill-rule="nonzero" stroke-linejoin="miter" d="M 105.652874 21.836374 C 105.980798 20.809456 106.446633 19.862001 106.989086 18.963447 C 107.641869 17.936529 108.294651 16.918779 108.990339 16.142477 C 109.578763 15.509822 110.216222 14.935237 111.055952 14.632662 C 111.59534 14.299525 112.134728 14.244511 112.674117 14.25368 C 113.311576 14.378989 113.927582 14.764083 114.479229 15.149178 C 115.089105 15.702369 115.401705 16.124139 115.628494 16.506178 C 116.079005 17.325267 116.526453 18.144357 116.7655 18.963447 L 117.295694 20.989778 C 117.421347 21.778305 117.543935 22.802167 117.666523 23.887155 L 117.666523 24.953806 L 116.174011 24.828497 C 115.361864 24.822385 114.509876 24.797934 113.94597 24.91713 C 112.989781 24.944637 112.238928 25.335844 111.445169 25.647587 L 110.139604 26.509465 L 108.852428 27.646411 L 107.853333 25.238042 C 107.672516 24.807103 107.36298 24.253912 106.967633 23.612088 C 106.58761 23.086403 106.238233 22.606563 105.652874 21.836374 Z M 105.652874 21.836374 " stroke="#fefefe" stroke-width="0.05" stroke-opacity="1" stroke-miterlimit="4"/><path stroke-linecap="butt" transform="matrix(1.274592, 0, 0, 1.278095, -110.914299, -6.475376)" fill-opacity="1" fill="#f68d2f" fill-rule="nonzero" stroke-linejoin="round" d="M 110.34494 20.002591 L 110.792387 19.000123 L 111.310322 18.229934 L 112.051981 17.514758 L 112.772187 17.163283 L 112.998975 16.949342 L 113.130758 16.475614 C 113.127693 16.362531 113.029623 16.203603 112.836546 16.001887 L 112.554593 15.839903 L 112.232799 15.803227 L 111.534046 16.169984 L 110.706575 16.775132 L 110.191704 17.291648 L 109.830069 17.802051 L 109.566504 18.324679 L 109.238581 18.938997 L 108.98421 19.611384 L 108.849363 20.097336 L 108.82791 20.271546 L 109.024051 20.522163 L 109.275357 20.754442 L 109.701351 20.8553 L 110.115087 20.653584 L 110.24074 20.354066 Z M 110.34494 20.002591 " stroke="#f68d2f" stroke-width="0.05" stroke-opacity="1" stroke-miterlimit="4"/></svg>
